X:450
T:Last New French Rigaudon,The. (p).1701.PLFD.450
M:4/4
L:1/4
Q:1/2=100
S:Playford, Dancing Master,11th Ed.,1701.
O:England
Z:Chris Partington.
K:C
c2|g/f/e/f/gc|d/c/B/A/BG|f/e/d/c/ B/c/d|c3:|
|:f/g/|a2e2|ce/f/ga|g2B2|AB/c/de|f/e/d/c/ B/c/d|c3:|
